!!! OTL: Berkowitz624
!!! Chapter: 1
!!! Section: V
!!! Page: 159
!!! Mode: 
!!! Encoder: AR
**kern
*staff1
=1-
!!pagebreak:original
*clefF4
*k[]
*C:
*M3/4
4AA/
4A-\
16A-\LL
16F\
16G-\
16F\JJ
=2
4An\
4C#/
4C#/
=3
4BB-/
4A-\
16A-\LL
16F\
16F#\
16E\JJ
=4
2.C/
=5
2B\
4B\
=6
2G\
4B-\
=7
2.G-\
=8
!!linebreak:original
4D\
4c#\
16c#\LL
16B\
16A#\
16B\JJ
=9
4D\
4c#\
16d\LL
16cn\
16B-\
16A-\JJ
=10
4.Bn\
8G\
4BB-/
=11
4F#\
2D#\
=12
!!linebreak:original
2.r
=13
4AA/
4A-\
16A-\LL
16F\
16G-\
16F\JJ
=14
4AAn/
4A-\
16A-\LL
16G-\
16An\
16F#\JJ
=15
2.AA#/
==
*-
